actions/22x22-dark/kt-stop.svg

<svg xmlns="http://www.w3.org/2000/svg" viewBox="0 0 22 22">
  <defs id="defs3051">
    <style type="text/css" id="current-color-scheme">
      .ColorScheme-Text {
        color:#f2f2f2
      }
      </style>
  </defs>
    <path
       style="fill:currentColor;fill-opacity:1;stroke:none"
       class="ColorScheme-Text"
       d="M 11 3 C 6.58172 3 3 6.58172 3 11 C 3 15.41828 6.58172 19 11 19 C 15.41828 19 19 15.41828 19 11 C 19 6.58172 15.41828 3 11 3 z M 8.5 8 L 13.5 8 C 13.777 8 14 8.223 14 8.5 L 14 13.5 C 14 13.777 13.777 14 13.5 14 L 8.5 14 C 8.223 14 8 13.777 8 13.5 L 8 8.5 C 8 8.223 8.223 8 8.5 8 z "
        />
</svg>

<svg xmlns="http://www.w3.org/2000/svg" viewBox="0 0 22 22">
 <defs id="defs3051">
   <style type="text/css" id="current-color-scheme">
     .ColorScheme-Text {
       color:#f2f2f2;
     }
     </style>
 </defs>
   <path
      style="fill:currentColor;fill-opacity:1;stroke:none"
      d="m11 3c-4.41828 0-8 3.58172-8 8s3.58172 8 8 8 8-3.58172 8-8-3.58172-8-8-8zm-2.5 5h5c .277 0 .5.223.5.5v5c0 .277-.223.5-.5.5h-5c-.277 0-.5-.223-.5-.5v-5c0-.277.223-.5.5-.5z"
      class="ColorScheme-Text" />
</svg>
